X: 2351
T: Hey to Cupar.  a Jig.
%R: jig
B: Niel Gow & Sons "Complete Repository" v.2 p.35 #1
Z: 2021 John Chambers <jc:trillian.mit.edu>
M: 6/8
L: 1/8
K: D
% - - - - - - - - - -
V: 1 staves=2
A, |\
D>ED TF2G | A2c AFD | G2e F2d | EFD C>B,A, |\
D>ED TF2G | A2B AFD | FdF Edc | d3 d2 :: A |\
d>ed Tf2g |
       {fg}a2g Tfed | BcB Tc2d | efd cBA |\
ded Tf2g | {fg}a2g fed |[1 B/c/dB c/d/ec | {c}d3 D2 :|\
                        [2 Bgf edc | {c}d3 D2 |]
% - - - - - - - - - -
V: 2 clef=bass middle=d
z | d3 d3 | [f3d3] d3 | e3 d3 | a3 A3 | d3 d3 | [f3d3] d3 | d3 A3 | d3 d2 :: z | d'3 d'3 |
d'3 f3 | g3 f3 | e3 a3 | d'3 d'3 | d'3 f3 |[1 g3 a3 | d3 d2 :|[2 g3 a3 | d3 d2 |]


